packages/tokens/icons/oneToOnePersonalization/size32Px.svg

<svg viewBox="0 0 32 32" fill="none" xmlns="http://www.w3.org/2000/svg" width="1em" height="1em"><mask id="path-1-inside-1_1748_7948" fill="currentColor"><path fill-rule="evenodd" clip-rule="evenodd" d="M13 18.2259C13 18.5829 12.8058 18.9075 12.5153 19.115C10.9926 20.2032 10 21.9857 10 24C10 27.3137 12.6863 30 16 30C19.3137 30 22 27.3137 22 24C22 21.9857 21.0074 20.2032 19.4847 19.115C19.1942 18.9075 19 18.5829 19 18.2259V5C19 3.34315 17.6569 2 16 2C14.3431 2 13 3.34315 13 5V18.2259Z"/></mask><path d="M19.4847 19.115L20.0661 18.3014L19.4847 19.115ZM12.5153 19.115L11.9339 18.3014L12.5153 19.115ZM11 24C11 22.3222 11.8254 20.8372 13.0968 19.9287L11.9339 18.3014C10.1598 19.5693 9 21.6492 9 24H11ZM16 29C13.2386 29 11 26.7614 11 24H9C9 27.866 12.134 31 16 31V29ZM21 24C21 26.7614 18.7614 29 16 29V31C19.866 31 23 27.866 23 24H21ZM18.9032 19.9287C20.1746 20.8372 21 22.3222 21 24H23C23 21.6492 21.8402 19.5693 20.0661 18.3014L18.9032 19.9287ZM20 18.2259V5H18V18.2259H20ZM20 5C20 2.79086 18.2091 1 16 1V3C17.1046 3 18 3.89543 18 5H20ZM16 1C13.7909 1 12 2.79086 12 5H14C14 3.89543 14.8954 3 16 3V1ZM12 5V18.2259H14V5H12ZM20.0661 18.3014C20.0342 18.2787 20.0153 18.2546 20.0062 18.2384C19.998 18.2237 20 18.2202 20 18.2259H18C18 18.9562 18.394 19.5647 18.9032 19.9287L20.0661 18.3014ZM13.0968 19.9287C13.606 19.5648 14 18.9562 14 18.2259H12C12 18.2202 12.002 18.2237 11.9938 18.2384C11.9847 18.2546 11.9658 18.2787 11.9339 18.3014L13.0968 19.9287Z" fill="currentColor" mask="url(#path-1-inside-1_1748_7948)"/><circle cx="16" cy="24" r="2.5" stroke="currentColor"/><path d="M16 15.5L16 21.5" stroke="currentColor" stroke-linecap="round"/><path fill-rule="evenodd" clip-rule="evenodd" d="M22 6.5C22 6.22386 22.2239 6 22.5 6H27.5C27.7761 6 28 6.22386 28 6.5C28 6.77614 27.7761 7 27.5 7H22.5C22.2239 7 22 6.77614 22 6.5ZM22 9.5C22 9.22386 22.2239 9 22.5 9H27.5C27.7761 9 28 9.22386 28 9.5C28 9.77614 27.7761 10 27.5 10H22.5C22.2239 10 22 9.77614 22 9.5ZM22.5 12C22.2239 12 22 12.2239 22 12.5C22 12.7761 22.2239 13 22.5 13H27.5C27.7761 13 28 12.7761 28 12.5C28 12.2239 27.7761 12 27.5 12H22.5ZM22 15.5C22 15.2239 22.2239 15 22.5 15H27.5C27.7761 15 28 15.2239 28 15.5C28 15.7761 27.7761 16 27.5 16H22.5C22.2239 16 22 15.7761 22 15.5ZM22.5 18C22.2239 18 22 18.2239 22 18.5C22 18.7761 22.2239 19 22.5 19H27.5C27.7761 19 28 18.7761 28 18.5C28 18.2239 27.7761 18 27.5 18H22.5Z" fill="currentColor"/><path d="M10.684 11.872C10.684 9.712 9.748 7.6 7.516 7.6C5.296 7.6 4.348 9.712 4.348 11.872C4.348 14.02 5.284 16.132 7.516 16.132C9.748 16.132 10.684 14.02 10.684 11.872ZM9.508 11.848C9.508 13.732 8.848 15.112 7.516 15.112C6.184 15.112 5.524 13.732 5.524 11.848C5.524 9.952 6.184 8.584 7.516 8.584C8.848 8.584 9.508 9.952 9.508 11.848Z" fill="currentColor"/><path d="M11.5 7C11.5 6.72386 11.2761 6.5 11 6.5C10.7239 6.5 10.5 6.72386 10.5 7C10.5 7.27614 10.7239 7.5 11 7.5C11.2761 7.5 11.5 7.27614 11.5 7Z" stroke="currentColor"/></svg>

<svg xmlns="http://www.w3.org/2000/svg" fill="none" viewBox="0 0 32 32" width="1em" height="1em"><mask id="iconsOneToOnePersonalizationSize32Px__a" fill="#fff"><path fill-rule="evenodd" d="M13 18.226c0 .357-.194.681-.485.889a6 6 0 1 0 6.97 0c-.29-.208-.485-.532-.485-.89V5a3 3 0 1 0-6 0v13.226Z" clip-rule="evenodd"/></mask><path fill="currentColor" d="m19.485 19.115.581-.814-.581.814Zm-6.97 0-.581-.814.581.814ZM11 24a4.99 4.99 0 0 1 2.097-4.071L11.934 18.3A6.993 6.993 0 0 0 9 24h2Zm5 5a5 5 0 0 1-5-5H9a7 7 0 0 0 7 7v-2Zm5-5a5 5 0 0 1-5 5v2a7 7 0 0 0 7-7h-2Zm-2.097-4.071A4.992 4.992 0 0 1 21 24h2c0-2.35-1.16-4.43-2.934-5.699l-1.163 1.628ZM20 18.226V5h-2v13.226h2ZM20 5a4 4 0 0 0-4-4v2a2 2 0 0 1 2 2h2Zm-4-4a4 4 0 0 0-4 4h2a2 2 0 0 1 2-2V1Zm-4 4v13.226h2V5h-2Zm8.066 13.301a.205.205 0 0 1-.06-.063c-.008-.014-.006-.018-.006-.012h-2c0 .73.394 1.339.903 1.703l1.163-1.628Zm-6.97 1.628c.51-.364.904-.973.904-1.703h-2c0-.006.002-.002-.006.012a.205.205 0 0 1-.06.063l1.163 1.628Z" mask="url(#iconsOneToOnePersonalizationSize32Px__a)"/><circle cx="16" cy="24" r="2.5" stroke="currentColor"/><path stroke="currentColor" stroke-linecap="round" d="M16 15.5v6"/><path fill="currentColor" fill-rule="evenodd" d="M22 6.5a.5.5 0 0 1 .5-.5h5a.5.5 0 0 1 0 1h-5a.5.5 0 0 1-.5-.5Zm0 3a.5.5 0 0 1 .5-.5h5a.5.5 0 0 1 0 1h-5a.5.5 0 0 1-.5-.5Zm.5 2.5a.5.5 0 0 0 0 1h5a.5.5 0 0 0 0-1h-5Zm-.5 3.5a.5.5 0 0 1 .5-.5h5a.5.5 0 0 1 0 1h-5a.5.5 0 0 1-.5-.5Zm.5 2.5a.5.5 0 0 0 0 1h5a.5.5 0 0 0 0-1h-5Z" clip-rule="evenodd"/><path fill="currentColor" d="M10.684 11.872c0-2.16-.936-4.272-3.168-4.272-2.22 0-3.168 2.112-3.168 4.272 0 2.148.936 4.26 3.168 4.26s3.168-2.112 3.168-4.26Zm-1.176-.024c0 1.884-.66 3.264-1.992 3.264-1.332 0-1.992-1.38-1.992-3.264 0-1.896.66-3.264 1.992-3.264 1.332 0 1.992 1.368 1.992 3.264Z"/><path stroke="currentColor" d="M11.5 7a.5.5 0 1 0-1 0 .5.5 0 0 0 1 0Z"/></svg>
